X: 3477
T: Beyond The Pale
R: jig
M: 6/8
K: Adorian
|:eAA BAG|Aag edc|~B3 ~c3|~d3 ~e3|
eAA BAG|Aag edc|~B3 ged|BAG A3:|
|:~a3 gea|ged cBA|Bge dge|Bge dge|
~a3 gea|ged cBA|~B3 ged|BAG A3:|

